X: 25357
T: Maple Leaf, The
R: reel
M: 4/4
K: Edorian
|:"Em" E2 EF GE~E2|"G" B2AB "Am" AGED|"Em" E2EF GFGA|"G" B2dB "Am"AGED|
"Em" E2 EF GE~E2|"G" B2AB "Am" AGED|"Em" Be ~e2 "G" BAGB|"Am" =cABG "C"AGED:|
|:"Em" Be ~e2 eg ~g2|"Em" Be ~e2 edBA|"Em" Be ~e2 eg ~g2|"D" ~a3 e "Bm"fedA|
"Em" Be ~e2 eg ~g2|"Em" Be ~e2 edBA|"Am" ae~e2 "Bm" fedB|"Am" =cABG "C"AGED:|

